X: 1176
T: An Coileach Ag Fogairt An Lae
R: jig
M: 6/8
K: Gmajor
D|:GBB BAG|ded dBA|G3 BAG|A3 A2D|
G3 BAG|d3 e/f/ge|dBG ABA|1 G3 G2:|2 G3 GB/c/d||
|:gdd gdd|c3 c2d|gdd gdB|A3 AB/c/d|
(g3 g)dB|c2 d e/f/ge|dBG ABA|1 G3 GB/c/d:|2 G3 G2D||

